X:3021
T:Jim Coleman's
T:Miss McGuinness
O:england
R:reel
N:See also #449
D:Matt Molloy: Stony Steps
M:C|
K:G
dG~G2 dGBd|efga bage|dG~G2 dG (3Bcd|1 egdB BAAB:|2 egdB BAA2||
a2af ~g3d|(3efg dg egd2|a2af ~g3d|(3efg dB BAA2|
a2af ~g3d|egdg egdg|b2bg ~a3g|edef g3e||
